; generated by Slic3r 1.2.9 on 2017-05-29 at 19:05:10

; Please note that the first layer is set at 0.3500mm to avoid sticking and warping issues. For further precision, consider adjusting this value to 0.1000mm.

; external perimeters extrusion width = 0.42mm
; perimeters extrusion width = 0.42mm
; infill extrusion width = 0.42mm
; solid infill extrusion width = 0.42mm
; top infill extrusion width = 0.42mm

M107wait for temperature to be reached
G21 ; set units to millimeters
G90 ; use absolute coordinates
M82 ; use absolute distances for extrusion
G92 E0
G1 E-2.50000 F9000.00000
G92 E0
G1 Z0.350 F4500.000
G1 X75.138 Y94.221 F4500.000
G1 E2.50000 F9000.00000
G1 X77.000 Y93.655 E2.56357 F1500.000
G1 X127.000 Y93.655 E4.19723
G1 X128.575 Y94.049 E4.25028
G1 X129.779 Y95.138 E4.30332 F1500.000
G1 X130.345 Y97.000 E4.36690
G1 X130.345 Y103.000 E4.56294
G1 X129.951 Y104.575 E4.61598
G1 X128.862 Y105.779 E4.66903
G1 X127.000 Y106.345 E4.73260
G1 X77.000 Y106.345 E6.36626
G1 X75.425 Y105.951 E6.41930
G1 X74.221 Y104.862 E6.47235
G1 X73.655 Y103.000 E6.53593
G1 X73.655 Y97.000 E6.73196
G1 X74.049 Y95.425 E6.78501
G1 X75.098 Y94.266 E6.83610
G1 E4.33610 F9000.00000
G92 E0
G1 X125.410 Y101.410 F4500.000
G1 E2.50000 F9000.00000
G1 X124.590 Y101.410 E2.52682 F1500.000
G1 X124.590 Y98.590 E2.61899
G1 X125.410 Y98.590 E2.64581
G1 X125.410 Y101.350 E2.73602
G1 X125.755 Y101.755 F4500.000
G1 X124.245 Y101.755 E2.78537 F1500.000
G1 X124.245 Y98.245 E2.90008
G1 X125.755 Y98.245 E2.94944
G1 X125.755 Y101.695 E3.06218
G1 X126.100 Y102.100 F4500.000
G1 X123.900 Y102.100 E3.13408 F1500.000
G1 X123.900 Y97.900 E3.27132
G1 X126.100 Y97.900 E3.34321
G1 X126.100 Y102.040 E3.47850
G1 E0.97850 F9000.00000
G92 E0
G1 X102.410 Y101.410 F4500.000
G1 E2.50000 F9000.00000
G1 X101.590 Y101.410 E2.52682 F1500.000
G1 X101.590 Y98.590 E2.61899
G1 X102.410 Y98.590 E2.64581
G1 X102.410 Y101.350 E2.73602
G1 X102.755 Y101.755 F4500.000
G1 X101.245 Y101.755 E2.78537 F1500.000
G1 X101.245 Y98.245 E2.90008
G1 X102.755 Y98.245 E2.94944
G1 X102.755 Y101.695 E3.06218
G1 X103.100 Y102.100 F4500.000
G1 X100.900 Y102.100 E3.13408 F1500.000
G1 X100.900 Y97.900 E3.27132
G1 X103.100 Y97.900 E3.34321
G1 X103.100 Y102.040 E3.47850
G1 E0.97850 F9000.00000
G92 E0
G1 X79.410 Y101.410 F4500.000
G1 E2.50000 F9000.00000
G1 X78.590 Y101.410 E2.52682 F1500.000
G1 X78.590 Y98.590 E2.61899
G1 X79.410 Y98.590 E2.64581
G1 X79.410 Y101.350 E2.73602
G1 X79.755 Y101.755 F4500.000
G1 X78.245 Y101.755 E2.78537 F1500.000
G1 X78.245 Y98.245 E2.90008
G1 X79.755 Y98.245 E2.94944
G1 X79.755 Y101.695 E3.06218
G1 X80.100 Y102.100 F4500.000
G1 X77.900 Y102.100 E3.13408 F1500.000
G1 X77.900 Y97.900 E3.27132
G1 X80.100 Y97.900 E3.34321
G1 X80.100 Y102.040 E3.47850
G1 X80.445 Y100.445 F4500.000
G1 X80.445 Y102.445 E3.54384 F1500.000
G1 X77.555 Y102.445 E3.63827
G1 X77.555 Y97.555 E3.79805
G1 X80.445 Y97.555 E3.89249
G1 X80.445 Y99.555 E3.95783
G1 X100.555 Y99.555 E4.61488
G1 X100.555 Y97.555 E4.68023
G1 X103.445 Y97.555 E4.77466
G1 X103.445 Y99.555 E4.84001
G1 X123.555 Y99.555 E5.49706
G1 X123.555 Y97.555 E5.56240
G1 X126.445 Y97.555 E5.65683
G1 X126.445 Y102.445 E5.81661
G1 X123.555 Y102.445 E5.91105
G1 X123.555 Y100.445 E5.97639
G1 X103.445 Y100.445 E6.63344
G1 X103.445 Y102.445 E6.69879
G1 X100.555 Y102.445 E6.79322
G1 X100.555 Y100.445 E6.85857
G1 X80.505 Y100.445 E7.51365
G1 X80.790 Y100.790 F4500.000
G1 X80.790 Y102.790 E7.57900 F1500.000
G1 X77.210 Y102.790 E7.69597
G1 X77.210 Y97.210 E7.87829
G1 X80.790 Y97.210 E7.99526
G1 X80.790 Y99.210 E8.06060
G1 X100.210 Y99.210 E8.69512
G1 X100.210 Y97.210 E8.76046
G1 X103.790 Y97.210 E8.87743
G1 X103.790 Y99.210 E8.94278
G1 X123.210 Y99.210 E9.57729
G1 X123.210 Y97.210 E9.64264
G1 X126.790 Y97.210 E9.75961
G1 X126.790 Y102.790 E9.94192
G1 X123.210 Y102.790 E10.05889
G1 X123.210 Y100.790 E10.12424
G1 X103.790 Y100.790 E10.75875
G1 X103.790 Y102.790 E10.82410
G1 X100.210 Y102.790 E10.94107
G1 X100.210 Y100.790 E11.00641
G1 X80.850 Y100.790 E11.63896
G1 X80.390 Y100.790 F4500.000
G1 X80.273 Y100.000 F4500.000
G1 X100.727 Y100.000 E13.12114 F1500.000
G1 X102.000 Y101.238 F4500.000
G1 X102.000 Y98.762 E13.30056 F1500.000
G1 X103.273 Y100.000 F4500.000
G1 X123.727 Y100.000 E14.78273 F1500.000
G1 X125.000 Y101.238 F4500.000
G1 X125.000 Y98.762 E14.96215 F1500.000
G1 E12.46215 F9000.00000
G92 E0
G1 X79.000 Y98.762 F4500.000
G1 E2.50000 F9000.00000
G1 X79.000 Y101.238 E2.67942 F1500.000
M106 S255
M140 S30 ; wait for bed temperature to be reached
G1 E0.17942 F9000.00000
G92 E0
G1 Z0.450 F4500.000
G1 X124.804 Y101.196 F4500.000
G1 E2.50000 F9000.00000
G1 X124.804 Y98.804 E2.52580 F1500.000
G1 X125.196 Y98.804 E2.53003
G1 X125.196 Y101.196 E2.55583
G1 X124.864 Y101.196 E2.55940
G1 X124.406 Y101.594 F4500.000
G1 X124.406 Y98.406 E2.59380 F1500.000
G1 X125.594 Y98.406 E2.60663
G1 X125.594 Y101.594 E2.64102
G1 X124.466 Y101.594 E2.65320
G1 X124.007 Y101.993 F4500.000
G1 X124.007 Y98.007 E2.69620 F1500.000
G1 X125.993 Y98.007 E2.71762
G1 X125.993 Y101.993 E2.76062
G1 X124.067 Y101.993 E2.78139
G1 E0.28139 F9000.00000
G92 E0
G1 X102.196 Y101.196 F4500.000
G1 E2.50000 F9000.00000
G1 X101.804 Y101.196 E2.50423 F1500.000
G1 X101.804 Y98.804 E2.53003
G1 X102.196 Y98.804 E2.53425
G1 X102.196 Y101.136 E2.55940
G1 X102.594 Y101.594 F4500.000
G1 X101.406 Y101.594 E2.57223 F1500.000
G1 X101.406 Y98.406 E2.60663
G1 X102.594 Y98.406 E2.61945
G1 X102.594 Y101.534 E2.65320
G1 X102.993 Y101.993 F4500.000
G1 X101.007 Y101.993 E2.67462 F1500.000
G1 X101.007 Y98.007 E2.71762
G1 X102.993 Y98.007 E2.73904
G1 X102.993 Y101.933 E2.78139
G1 E0.28139 F9000.00000
G92 E0
G1 X79.196 Y101.196 F4500.000
G1 E2.50000 F9000.00000
G1 X78.804 Y101.196 E2.50423 F1500.000
G1 X78.804 Y98.804 E2.53003
G1 X79.196 Y98.804 E2.53425
G1 X79.196 Y101.136 E2.55940
G1 X79.594 Y101.594 F4500.000
G1 X78.406 Y101.594 E2.57223 F1500.000
G1 X78.406 Y98.406 E2.60663
G1 X79.594 Y98.406 E2.61945
G1 X79.594 Y101.534 E2.65320
G1 X79.993 Y101.993 F4500.000
G1 X78.007 Y101.993 E2.67462 F1500.000
G1 X78.007 Y98.007 E2.71762
G1 X79.993 Y98.007 E2.73904
G1 X79.993 Y101.933 E2.78139
G1 X80.391 Y100.391 F4500.000
G1 X80.391 Y102.391 E2.80296 F1500.000
G1 X77.609 Y102.391 E2.83299
G1 X77.609 Y97.609 E2.88458
G1 X80.391 Y97.609 E2.91460
G1 X80.391 Y99.609 E2.93618
G1 X100.609 Y99.609 E3.15426
G1 X100.609 Y97.609 E3.17584
G1 X103.391 Y97.609 E3.20586
G1 X103.391 Y99.609 E3.22743
G1 X123.609 Y99.609 E3.44552
G1 X123.609 Y97.609 E3.46710
G1 X126.391 Y97.609 E3.49712
G1 X126.391 Y102.391 E3.54871
G1 X123.609 Y102.391 E3.57873
G1 X123.609 Y100.391 E3.60031
G1 X103.391 Y100.391 E3.81840
G1 X103.391 Y102.391 E3.83997
G1 X100.609 Y102.391 E3.86999
G1 X100.609 Y100.391 E3.89157
G1 X80.451 Y100.391 E4.10901
G1 X80.790 Y100.790 F4500.000
G1 X80.790 Y102.790 E4.13058 F1500.000
G1 X77.210 Y102.790 E4.16920
G1 X77.210 Y97.210 E4.22939
G1 X80.790 Y97.210 E4.26801
G1 X80.790 Y99.210 E4.28959
G1 X100.210 Y99.210 E4.49908
G1 X100.210 Y97.210 E4.52065
G1 X103.790 Y97.210 E4.55927
G1 X103.790 Y99.210 E4.58085
G1 X123.210 Y99.210 E4.79034
G1 X123.210 Y97.210 E4.81191
G1 X126.790 Y97.210 E4.85053
G1 X126.790 Y102.790 E4.91072
G1 X123.210 Y102.790 E4.94934
G1 X123.210 Y100.790 E4.97092
G1 X103.790 Y100.790 E5.18041
G1 X103.790 Y102.790 E5.20198
G1 X100.210 Y102.790 E5.24060
G1 X100.210 Y100.790 E5.26217
G1 X80.850 Y100.790 E5.47102
G1 X80.390 Y100.790 F4500.000
G1 X80.192 Y100.000 F4500.000
G1 X100.808 Y100.000 E5.92777 F1500.000
G1 E3.42777 F9000.00000
G92 E0
G1 X103.192 Y100.000 F4500.000
G1 E2.50000 F9000.00000
G1 X123.808 Y100.000 E2.95675 F1500.000
G1 E0.45675 F9000.00000
G92 E0
G1 Z0.550 F4500.000
G1 X124.804 Y101.196 F4500.000
G1 E2.50000 F9000.00000
G1 X124.804 Y98.804 E2.52580 F1500.000
G1 X125.196 Y98.804 E2.53003
G1 X125.196 Y101.196 E2.55583
G1 X124.864 Y101.196 E2.55940
G1 X124.406 Y101.594 F4500.000
G1 X124.406 Y98.406 E2.59380 F1500.000
G1 X125.594 Y98.406 E2.60663
G1 X125.594 Y101.594 E2.64102
G1 X124.466 Y101.594 E2.65320
G1 X124.007 Y101.993 F4500.000
G1 X124.007 Y98.007 E2.69620 F1500.000
G1 X125.993 Y98.007 E2.71762
G1 X125.993 Y101.993 E2.76062
G1 X124.067 Y101.993 E2.78139
G1 E0.28139 F9000.00000
G92 E0
G1 X102.196 Y101.196 F4500.000
G1 E2.50000 F9000.00000
G1 X101.804 Y101.196 E2.50423 F1500.000
G1 X101.804 Y98.804 E2.53003
G1 X102.196 Y98.804 E2.53425
G1 X102.196 Y101.136 E2.55940
G1 X102.594 Y101.594 F4500.000
G1 X101.406 Y101.594 E2.57223 F1500.000
G1 X101.406 Y98.406 E2.60663
G1 X102.594 Y98.406 E2.61945
G1 X102.594 Y101.534 E2.65320
G1 X102.993 Y101.993 F4500.000
G1 X101.007 Y101.993 E2.67462 F1500.000
G1 X101.007 Y98.007 E2.71762
G1 X102.993 Y98.007 E2.73904
G1 X102.993 Y101.933 E2.78139
G1 E0.28139 F9000.00000
G92 E0
G1 X79.196 Y101.196 F4500.000
G1 E2.50000 F9000.00000
G1 X78.804 Y101.196 E2.50423 F1500.000
G1 X78.804 Y98.804 E2.53003
G1 X79.196 Y98.804 E2.53425
G1 X79.196 Y101.136 E2.55940
G1 X79.594 Y101.594 F4500.000
G1 X78.406 Y101.594 E2.57223 F1500.000
G1 X78.406 Y98.406 E2.60663
G1 X79.594 Y98.406 E2.61945
G1 X79.594 Y101.534 E2.65320
G1 X79.993 Y101.993 F4500.000
G1 X78.007 Y101.993 E2.67462 F1500.000
G1 X78.007 Y98.007 E2.71762
G1 X79.993 Y98.007 E2.73904
G1 X79.993 Y101.933 E2.78139
G1 X80.391 Y100.391 F4500.000
G1 X80.391 Y102.391 E2.80296 F1500.000
G1 X77.609 Y102.391 E2.83299
G1 X77.609 Y97.609 E2.88458
G1 X80.391 Y97.609 E2.91460
G1 X80.391 Y99.609 E2.93618
G1 X100.609 Y99.609 E3.15426
G1 X100.609 Y97.609 E3.17584
G1 X103.391 Y97.609 E3.20586
G1 X103.391 Y99.609 E3.22743
G1 X123.609 Y99.609 E3.44552
G1 X123.609 Y97.609 E3.46710
G1 X126.391 Y97.609 E3.49712
G1 X126.391 Y102.391 E3.54871
G1 X123.609 Y102.391 E3.57873
G1 X123.609 Y100.391 E3.60031
G1 X103.391 Y100.391 E3.81840
G1 X103.391 Y102.391 E3.83997
G1 X100.609 Y102.391 E3.86999
G1 X100.609 Y100.391 E3.89157
G1 X80.451 Y100.391 E4.10901
G1 X80.790 Y100.790 F4500.000
G1 X80.790 Y102.790 E4.13058 F1500.000
G1 X77.210 Y102.790 E4.16920
G1 X77.210 Y97.210 E4.22939
G1 X80.790 Y97.210 E4.26801
G1 X80.790 Y99.210 E4.28959
G1 X100.210 Y99.210 E4.49908
G1 X100.210 Y97.210 E4.52065
G1 X103.790 Y97.210 E4.55927
G1 X103.790 Y99.210 E4.58085
G1 X123.210 Y99.210 E4.79034
G1 X123.210 Y97.210 E4.81191
G1 X126.790 Y97.210 E4.85053
G1 X126.790 Y102.790 E4.91072
G1 X123.210 Y102.790 E4.94934
G1 X123.210 Y100.790 E4.97092
G1 X103.790 Y100.790 E5.18041
G1 X103.790 Y102.790 E5.20198
G1 X100.210 Y102.790 E5.24060
G1 X100.210 Y100.790 E5.26217
G1 X80.850 Y100.790 E5.47102
G1 X80.390 Y100.790 F4500.000
G1 X80.192 Y100.000 F4500.000
G1 X100.808 Y100.000 E5.92777 F1500.000
G1 E3.42777 F9000.00000
G92 E0
G1 X103.192 Y100.000 F4500.000
G1 E2.50000 F9000.00000
G1 X123.808 Y100.000 E2.95675 F1500.000
G1 E0.45675 F9000.00000
G92 E0
G1 Z0.650 F4500.000
G1 X124.804 Y101.196 F4500.000
G1 E2.50000 F9000.00000
G1 X124.804 Y98.804 E2.52580 F1500.000
G1 X125.196 Y98.804 E2.53003
G1 X125.196 Y101.196 E2.55583
G1 X124.864 Y101.196 E2.55940
G1 X124.406 Y101.594 F4500.000
G1 X124.406 Y98.406 E2.59380 F1500.000
G1 X125.594 Y98.406 E2.60663
G1 X125.594 Y101.594 E2.64102
G1 X124.466 Y101.594 E2.65320
G1 X124.007 Y101.993 F4500.000
G1 X124.007 Y98.007 E2.69620 F1500.000
G1 X125.993 Y98.007 E2.71762
G1 X125.993 Y101.993 E2.76062
G1 X124.067 Y101.993 E2.78139
G1 E0.28139 F9000.00000
G92 E0
G1 X102.196 Y101.196 F4500.000
G1 E2.50000 F9000.00000
G1 X101.804 Y101.196 E2.50423 F1500.000
G1 X101.804 Y98.804 E2.53003
G1 X102.196 Y98.804 E2.53425
G1 X102.196 Y101.136 E2.55940
G1 X102.594 Y101.594 F4500.000
G1 X101.406 Y101.594 E2.57223 F1500.000
G1 X101.406 Y98.406 E2.60663
G1 X102.594 Y98.406 E2.61945
G1 X102.594 Y101.534 E2.65320
G1 X102.993 Y101.993 F4500.000
G1 X101.007 Y101.993 E2.67462 F1500.000
G1 X101.007 Y98.007 E2.71762
G1 X102.993 Y98.007 E2.73904
G1 X102.993 Y101.933 E2.78139
G1 E0.28139 F9000.00000
G92 E0
G1 X79.196 Y101.196 F4500.000
G1 E2.50000 F9000.00000
G1 X78.804 Y101.196 E2.50423 F1500.000
G1 X78.804 Y98.804 E2.53003
G1 X79.196 Y98.804 E2.53425
G1 X79.196 Y101.136 E2.55940
G1 X79.594 Y101.594 F4500.000
G1 X78.406 Y101.594 E2.57223 F1500.000
G1 X78.406 Y98.406 E2.60663
G1 X79.594 Y98.406 E2.61945
G1 X79.594 Y101.534 E2.65320
G1 X79.993 Y101.993 F4500.000
G1 X78.007 Y101.993 E2.67462 F1500.000
G1 X78.007 Y98.007 E2.71762
G1 X79.993 Y98.007 E2.73904
G1 X79.993 Y101.933 E2.78139
G1 X80.391 Y100.391 F4500.000
G1 X80.391 Y102.391 E2.80296 F1500.000
G1 X77.609 Y102.391 E2.83299
G1 X77.609 Y97.609 E2.88458
G1 X80.391 Y97.609 E2.91460
G1 X80.391 Y99.609 E2.93618
G1 X100.609 Y99.609 E3.15426
G1 X100.609 Y97.609 E3.17584
G1 X103.391 Y97.609 E3.20586
G1 X103.391 Y99.609 E3.22743
G1 X123.609 Y99.609 E3.44552
G1 X123.609 Y97.609 E3.46710
G1 X126.391 Y97.609 E3.49712
G1 X126.391 Y102.391 E3.54871
G1 X123.609 Y102.391 E3.57873
G1 X123.609 Y100.391 E3.60031
G1 X103.391 Y100.391 E3.81840
G1 X103.391 Y102.391 E3.83997
G1 X100.609 Y102.391 E3.86999
G1 X100.609 Y100.391 E3.89157
G1 X80.451 Y100.391 E4.10901
G1 X80.790 Y100.790 F4500.000
G1 X80.790 Y102.790 E4.13058 F1500.000
G1 X77.210 Y102.790 E4.16920
G1 X77.210 Y97.210 E4.22939
G1 X80.790 Y97.210 E4.26801
G1 X80.790 Y99.210 E4.28959
G1 X100.210 Y99.210 E4.49908
G1 X100.210 Y97.210 E4.52065
G1 X103.790 Y97.210 E4.55927
G1 X103.790 Y99.210 E4.58085
G1 X123.210 Y99.210 E4.79034
G1 X123.210 Y97.210 E4.81191
G1 X126.790 Y97.210 E4.85053
G1 X126.790 Y102.790 E4.91072
G1 X123.210 Y102.790 E4.94934
G1 X123.210 Y100.790 E4.97092
G1 X103.790 Y100.790 E5.18041
G1 X103.790 Y102.790 E5.20198
G1 X100.210 Y102.790 E5.24060
G1 X100.210 Y100.790 E5.26217
G1 X80.850 Y100.790 E5.47102
G1 X80.390 Y100.790 F4500.000
G1 X80.192 Y100.000 F4500.000
G1 X100.808 Y100.000 E5.92777 F1500.000
G1 E3.42777 F9000.00000
G92 E0
G1 X103.192 Y100.000 F4500.000
G1 E2.50000 F9000.00000
G1 X123.808 Y100.000 E2.95675 F1500.000
G1 E0.45675 F9000.00000
G92 E0
G1 Z0.750 F4500.000
G1 X124.804 Y101.196 F4500.000
G1 E2.50000 F9000.00000
G1 X124.804 Y98.804 E2.52580 F1500.000
G1 X125.196 Y98.804 E2.53003
G1 X125.196 Y101.196 E2.55583
G1 X124.864 Y101.196 E2.55940
G1 X124.406 Y101.594 F4500.000
G1 X124.406 Y98.406 E2.59380 F1500.000
G1 X125.594 Y98.406 E2.60663
G1 X125.594 Y101.594 E2.64102
G1 X124.466 Y101.594 E2.65320
G1 X124.007 Y101.993 F4500.000
G1 X124.007 Y98.007 E2.69620 F1500.000
G1 X125.993 Y98.007 E2.71762
G1 X125.993 Y101.993 E2.76062
G1 X124.067 Y101.993 E2.78139
G1 E0.28139 F9000.00000
G92 E0
G1 X102.196 Y101.196 F4500.000
G1 E2.50000 F9000.00000
G1 X101.804 Y101.196 E2.50423 F1500.000
G1 X101.804 Y98.804 E2.53003
G1 X102.196 Y98.804 E2.53425
G1 X102.196 Y101.136 E2.55940
G1 X102.594 Y101.594 F4500.000
G1 X101.406 Y101.594 E2.57223 F1500.000
G1 X101.406 Y98.406 E2.60663
G1 X102.594 Y98.406 E2.61945
G1 X102.594 Y101.534 E2.65320
G1 X102.993 Y101.993 F4500.000
G1 X101.007 Y101.993 E2.67462 F1500.000
G1 X101.007 Y98.007 E2.71762
G1 X102.993 Y98.007 E2.73904
G1 X102.993 Y101.933 E2.78139
G1 E0.28139 F9000.00000
G92 E0
G1 X79.196 Y101.196 F4500.000
G1 E2.50000 F9000.00000
G1 X78.804 Y101.196 E2.50423 F1500.000
G1 X78.804 Y98.804 E2.53003
G1 X79.196 Y98.804 E2.53425
G1 X79.196 Y101.136 E2.55940
G1 X79.594 Y101.594 F4500.000
G1 X78.406 Y101.594 E2.57223 F1500.000
G1 X78.406 Y98.406 E2.60663
G1 X79.594 Y98.406 E2.61945
G1 X79.594 Y101.534 E2.65320
G1 X79.993 Y101.993 F4500.000
G1 X78.007 Y101.993 E2.67462 F1500.000
G1 X78.007 Y98.007 E2.71762
G1 X79.993 Y98.007 E2.73904
G1 X79.993 Y101.933 E2.78139
G1 X80.391 Y100.391 F4500.000
G1 X80.391 Y102.391 E2.80296 F1500.000
G1 X77.609 Y102.391 E2.83299
G1 X77.609 Y97.609 E2.88458
G1 X80.391 Y97.609 E2.91460
G1 X80.391 Y99.609 E2.93618
G1 X100.609 Y99.609 E3.15426
G1 X100.609 Y97.609 E3.17584
G1 X103.391 Y97.609 E3.20586
G1 X103.391 Y99.609 E3.22743
G1 X123.609 Y99.609 E3.44552
G1 X123.609 Y97.609 E3.46710
G1 X126.391 Y97.609 E3.49712
G1 X126.391 Y102.391 E3.54871
G1 X123.609 Y102.391 E3.57873
G1 X123.609 Y100.391 E3.60031
G1 X103.391 Y100.391 E3.81840
G1 X103.391 Y102.391 E3.83997
G1 X100.609 Y102.391 E3.86999
G1 X100.609 Y100.391 E3.89157
G1 X80.451 Y100.391 E4.10901
G1 X80.790 Y100.790 F4500.000
